X: 1
T:Ring o' Bells - Lichfield
Q:120
M:2/4
L:1/8
P: A.(AB)6
Z: Mackin and the Ring
W: Warning: morris dancers will go into the pub at the end. 
W: Morris formula: 
K:G
P:A
B2 A2|Gc B2|AG FG |B2 A2|
B2 A2|Gc B2|Ad d^c|d2 cd||
P:B
|: d2 c2|Bg e2|d2 c2 |Bg e2|
dG c2|BF Gc|B2 A>G|G2 Ac :|
